X:1
T:Title
%%score ( 1 2 ) { 3 | 4 }
L:1/8
Q:1/4=100
M:4/4
K:F
V:1 treble nm="Drawbar Organ, Soprano"
V:2 treble 
V:3 bass nm="Church Organ, Scotts Bluff, 87.87 D"
V:4 bass 
V:1
 [FA]2 [Ec]2 [FA][EG][CF][EG] | [FA]2 [EG]>[EA] [EG]2 .F2 | [FB]2 [FA]2 [Ed]2 [Fc]2 | z2 .G2 z4 | %4
w: By~F.~R.,~1903 * * * * *||||
 [FA]2 [Gc]2 AGD-[DG] | [^CA]2 [DG]>A [EG]2 .[DF]2 | [DG]2 [Fd]2 [Fd]2 [Fc]2 | [EB]2 [CE]2 .[CF]4 | %8
w: ||||
 [FA]2 [DF]>[EG] [DA]2 [DF]>[EG] | [FA]2 [Ad]2 [Ad]2 .[A^c]2 | [Fe]2 [Fd]2 [DB]2 [DG]2 | %11
w: |||
 C-[CG]Ac .[EG]4 | [CA]2 [_Ad]2 [Ad]2 [Gc]2 | [DF]2 [DB]2 [EB]2 [FA]2 | [DG]2 [Fd]2 [Fd]2 [Fc]2 | %15
w: ||||
 [EB]2 [CE]2 [CF]4- | [CF]4 z4 |] %17
w: ||
V:2
 x8 | x8 | x8 | F2 F-[FA] .[EG]4 | z4 F2 .F2 | x8 | x8 | x8 | x8 | x8 | x8 | .F2 F2 z4 | x8 | x8 | %14
 x8 | x8 | x8 |] %17
V:3
 C2 B,2 CB,A,B, | C2 B,>B, B,2 .A,2 | D2 F2 C2 C2 | D2 =B,2 .C4 | C2 C2 D2[K:bass] A,2 | %5
 A,2 D,2 B,2 .A,2 | G,2 _A,2 =A,2 A,2 | G,2 B,2 .A,4 | A,2 B,2 F,2 B,2 | A,2 A,2[K:treble] F2 .E2 | %10
 B,2 B,2 B,2[K:bass] B,2 | A,2 A,2 .B,4 | A,2 =B,2 B,2 C2 | D2 F,2 G,2 F,2 | G,2 _A,2 =A,2 A,2 | %15
 G,2 B,2 A,4- | A,4 z4 |] %17
V:4
 F,2 F,2 F,2 F,2 | F,2 C,>C, C,2 .F,2 | z2 C2 B,2 A,2 | D,2 G,2 .C,4 | F,2 E,2 D,2 D,2 | %5
 A,,2 B,,2 C,2 .D,2 | B,,2 =B,,2 C,2 C,2 | C,2 C,2 .F,4 | D,2 D,2 D,2 D,2 | D,2 F,2 A,2 .A,,2 | %10
 B,,2 D,2 F,2 G,2 | C,2 C,2 .C,4 | F,2 F,2 F,2 E,2 | D,2 D,2 C,2 z2 | B,,2 =B,,2 C,2 C,2 | %15
 C,2 C,2 F,4- | F,4 z4 |] %17

